svgs/light/teeth.svg

<svg xmlns="http://www.w3.org/2000/svg" viewBox="0 0 576 512"><!-- Font Awesome Pro 6.0.0-alpha2 by @fontawesome - https://fontawesome.com License - https://fontawesome.com/license (Commercial License) --><path d="M480 32H96C42.98 32 0 74.98 0 128V384C0 437.02 42.98 480 96 480H480C533.02 480 576 437.02 576 384V128C576 74.98 533.02 32 480 32ZM544 384C544 419.289 515.291 448 480 448H96C60.711 448 32 419.289 32 384V128C32 92.711 60.711 64 96 64H480C515.291 64 544 92.711 544 128V384ZM448 160C433.926 160 421.021 164.686 410.453 172.393C399.596 146.361 373.916 128 344 128C321.268 128 301.205 138.801 288 155.309C274.795 138.801 254.732 128 232 128C202.084 128 176.404 146.361 165.547 172.393C154.979 164.686 142.074 160 128 160C92.668 160 64 188.666 64 224V266.666C64 268.561 64.613 270.254 65.07 272C64.613 273.746 64 275.439 64 277.334V320C64 355.334 92.668 384 128 384C144.836 384 160.041 377.355 171.469 366.719C184.271 386.684 206.535 400 232 400C254.754 400 274.805 389.225 288 372.732C301.195 389.225 321.246 400 344 400C369.465 400 391.729 386.684 404.531 366.719C415.959 377.355 431.164 384 448 384C483.334 384 512 355.334 512 320V277.334C512 275.439 511.387 273.746 510.93 272C511.387 270.254 512 268.561 512 266.666V224C512 188.666 483.334 160 448 160ZM160 320C160 337.645 145.645 352 128 352S96 337.645 96 320V288H160V320ZM160 256H96V224C96 206.355 110.355 192 128 192S160 206.355 160 224V256ZM272 328C272 350.057 254.057 368 232 368C209.945 368 192 350.057 192 328V288H272V328ZM272 256H192V200C192 177.943 209.945 160 232 160C254.057 160 272 177.943 272 200V256ZM384 328C384 350.057 366.057 368 344 368C321.945 368 304 350.057 304 328V288H384V328ZM384 256H304V200C304 177.943 321.945 160 344 160C366.057 160 384 177.943 384 200V256ZM480 320C480 337.645 465.645 352 448 352S416 337.645 416 320V288H480V320ZM480 256H416V224C416 206.355 430.355 192 448 192S480 206.355 480 224V256Z"/></svg>

<svg xmlns="http://www.w3.org/2000/svg" viewBox="0 0 576 512"><!--! Font Awesome Pro 6.3.0 by @fontawesome - https://fontawesome.com License - https://fontawesome.com/license (Commercial License) Copyright 2023 Fonticons, Inc. --><path d="M480 32H96C42.98 32 0 74.98 0 128v256c0 53.02 42.98 96 96 96h384c53.02 0 96-42.98 96-96V128C576 74.98 533 32 480 32zM544 384c0 35.29-28.71 64-64 64H96c-35.29 0-64-28.71-64-64V128c0-35.29 28.71-64 64-64h384c35.29 0 64 28.71 64 64V384zM448 160c-14.07 0-26.98 4.686-37.55 12.39C399.6 146.4 373.9 128 344 128C321.3 128 301.2 138.8 288 155.3C274.8 138.8 254.7 128 232 128C202.1 128 176.4 146.4 165.5 172.4C154.1 164.7 142.1 160 128 160C92.67 160 64 188.7 64 224v42.67C64 268.6 64.61 270.3 65.07 272C64.61 273.7 64 275.4 64 277.3V320c0 35.33 28.67 64 64 64c16.84 0 32.04-6.645 43.47-17.28C184.3 386.7 206.5 400 232 400c22.75 0 42.8-10.78 56-27.27C301.2 389.2 321.2 400 344 400c25.46 0 47.73-13.32 60.53-33.28C415.1 377.4 431.2 384 448 384c35.33 0 64-28.67 64-64V277.3C512 275.4 511.4 273.7 510.9 272C511.4 270.3 512 268.6 512 266.7V224C512 188.7 483.3 160 448 160zM160 320c0 17.64-14.36 32-32 32s-32-14.36-32-32V288h64V320zM160 256H96V224c0-17.64 14.36-32 32-32s32 14.36 32 32V256zM272 328c0 22.06-17.94 40-40 40C209.9 368 192 350.1 192 328V288h80V328zM272 256H192V200C192 177.9 209.9 160 232 160C254.1 160 272 177.9 272 200V256zM384 328c0 22.06-17.94 40-40 40c-22.05 0-40-17.94-40-40V288H384V328zM384 256h-80V200C304 177.9 321.9 160 344 160C366.1 160 384 177.9 384 200V256zM480 320c0 17.64-14.36 32-32 32s-32-14.36-32-32V288h64V320zM480 256h-64V224c0-17.64 14.36-32 32-32s32 14.36 32 32V256z"/></svg>
